dist/img/checked.svg

<svg width="155" height="155" viewBox="0 0 155 155" fill="none" xmlns="http://www.w3.org/2000/svg">
<circle cx="77.5" cy="77.5" r="77.5" fill="#FFD338"/>
<circle cx="77.4996" cy="77.5001" r="63.3902" fill="#FFD338" stroke="black" stroke-dasharray="7 7"/>
<circle cx="77.5" cy="77.5" r="46.5" fill="#FFDB5C"/>
<path d="M98.0867 65.7192C97.0125 65.0803 95.9043 64.403 95.3638 63.7161C94.8233 63.0292 94.5366 61.8704 94.1995 60.7013C93.6011 58.5566 92.8974 56.1076 90.7328 54.8578C88.5682 53.6081 86.0953 54.2232 83.9388 54.7772C82.7578 55.0699 81.5547 55.3686 80.7458 55.2764C79.9369 55.1842 78.74 54.5306 77.6496 53.9198C75.7277 52.8665 73.5307 51.673 71.2249 52.2908C68.9191 52.9086 67.6132 55.0407 66.4755 56.9139C65.8366 57.9881 65.1593 59.0963 64.4724 59.6368C63.7855 60.1773 62.6267 60.4641 61.4576 60.8011C59.3129 61.3995 56.8639 62.1033 55.6141 64.2678C54.3644 66.4324 54.9795 68.9053 55.5336 71.0618C55.8262 72.2428 56.1249 73.446 56.0327 74.2548C55.9405 75.0637 55.2869 76.2606 54.6761 77.351C53.6228 79.2729 52.4293 81.4699 53.0471 83.7757C53.6649 86.0815 55.7971 87.3874 57.6702 88.5251C58.7444 89.164 59.8526 89.8414 60.3931 90.5282C60.9336 91.2151 61.2204 92.3739 61.5574 93.543C62.1558 95.6877 62.8596 98.1368 65.0241 99.3865C67.1887 100.636 69.6616 100.021 71.8181 99.4671C72.9991 99.1744 74.2023 98.8757 75.0111 98.9679C75.82 99.0601 77.0169 99.7137 78.1073 100.324C80.0292 101.378 82.2262 102.571 84.532 101.954C86.8378 101.336 88.1437 99.2036 89.2814 97.3304C89.9203 96.2562 90.5977 95.148 91.2845 94.6075C91.9714 94.067 93.1302 93.7803 94.2993 93.4432C96.444 92.8448 98.8931 92.1411 100.143 89.9765C101.393 87.8119 100.777 85.339 100.223 83.1825C99.9307 82.0015 99.6321 80.7984 99.7242 79.9895C99.8164 79.1806 100.47 77.9837 101.081 76.8933C102.134 74.9714 103.328 72.7744 102.71 70.4686C102.092 68.1628 99.9599 66.8569 98.0867 65.7192ZM87.7718 70.1464L78.1065 86.0433C77.8553 86.4493 77.4575 86.7431 76.9956 86.8638C76.5417 86.9872 76.0576 86.9295 75.6455 86.7028L67.4861 82.2355C67.2638 82.1266 67.0658 81.9739 66.904 81.7865C66.7423 81.5991 66.6201 81.3809 66.5448 81.1451C66.4695 80.9093 66.4426 80.6607 66.4659 80.4142C66.4891 80.1678 66.5619 79.9286 66.68 79.711C66.798 79.4934 66.9588 79.3019 67.1527 79.1481C67.3467 78.9942 67.5697 78.8812 67.8084 78.8157C68.0472 78.7502 68.2967 78.7337 68.542 78.7672C68.7872 78.8006 69.0232 78.8833 69.2357 79.0102L75.8609 82.6291L84.6439 68.2281C84.9082 67.8348 85.3142 67.5589 85.7772 67.458C86.2401 67.3571 86.7242 67.4391 87.1281 67.6868C87.532 67.9346 87.8245 68.3288 87.9445 68.7872C88.0645 69.2456 88.0026 69.7326 87.7718 70.1464Z" fill="#36363A"/>
</svg>

<svg width="155" height="155" fill="none" xmlns="http://www.w3.org/2000/svg"><circle cx="77.5" cy="77.5" r="77.5" fill="#FFD338"/><circle cx="77.5" cy="77.5" r="63.39" fill="#FFD338" stroke="#000" stroke-dasharray="7 7"/><circle cx="77.5" cy="77.5" r="46.5" fill="#FFDB5C"/><path d="M98.087 65.72c-1.075-.64-2.183-1.317-2.723-2.004s-.827-1.846-1.165-3.015c-.598-2.144-1.302-4.593-3.466-5.843-2.165-1.25-4.638-.635-6.794-.08-1.181.292-2.384.59-3.193.498-.81-.092-2.006-.745-3.096-1.356-1.922-1.053-4.12-2.247-6.425-1.63-2.306.619-3.612 2.75-4.75 4.624-.638 1.074-1.316 2.182-2.003 2.723-.686.54-1.845.827-3.014 1.164-2.145.599-4.594 1.302-5.844 3.467-1.25 2.164-.634 4.637-.08 6.794.292 1.18.59 2.384.499 3.193-.093.809-.746 2.006-1.357 3.096-1.053 1.922-2.247 4.119-1.629 6.425.618 2.306 2.75 3.611 4.623 4.75 1.074.638 2.183 1.315 2.723 2.002.54.687.827 1.846 1.164 3.015.599 2.145 1.303 4.594 3.467 5.843 2.165 1.25 4.638.635 6.794.081 1.181-.293 2.384-.591 3.193-.5.809.093 2.006.747 3.096 1.357 1.922 1.054 4.12 2.247 6.425 1.63 2.306-.618 3.612-2.75 4.75-4.624.638-1.074 1.316-2.182 2.002-2.722.687-.541 1.846-.828 3.015-1.165 2.145-.598 4.594-1.302 5.844-3.466 1.25-2.165.634-4.638.08-6.794-.292-1.182-.59-2.385-.499-3.194.092-.808.746-2.005 1.357-3.096 1.053-1.922 2.247-4.119 1.629-6.424-.618-2.306-2.75-3.612-4.623-4.75zm-10.315 4.426l-9.666 15.897a1.86 1.86 0 01-1.11.82 1.814 1.814 0 01-1.35-.16l-8.16-4.468a1.836 1.836 0 111.75-3.225l6.625 3.62 8.783-14.402a1.836 1.836 0 013.128 1.918z" fill="#36363A"/></svg>
